X:291
M:4/4
L:1/4
K:G
D G A | B4- | B A G E | D4- | D D G F | G4- | G A B c/B/ | A4- | A A B c | d4- | d c/B/ A G | B4- | B !sintro!A G E | D4- | D D E G | G4 !eintro!|]
